X:48
T:De szeretnék
O:Buják (Nógrád)
Q:"Tempo guisto"
M:C
L:1/4
K:Bb
c/G/c/B/ E/G/F/E/ | D<C C z | 
e/e/f/e/ d/c/G/c/ | B<G G z | 
e/e/f/e/ d/c/G/c/ | B<B c z | 
c/G/c/B/ E/G/F/E/ | D<C C z | 

